numeric-7-box-multiple.svg

<svg fill="currentColor" viewBox="0 0 24 24"><path d="M3 5v16h16v2H3a2 2 0 0 1-2-2V5zm10 10 4-8V5h-6v2h4l-4 8zm8-14a2 2 0 0 1 2 2v14a2 2 0 0 1-2 2H7a2 2 0 0 1-2-2V3a2 2 0 0 1 2-2z"/></svg>

<svg  viewBox="0 0 24 24" fill="currentColor"><path  d="M3,5V21H19V23H3A2,2 0 0,1 1,21V5H3M13,15L17,7V5H11V7H15L11,15H13M21,1A2,2 0 0,1 23,3V17A2,2 0 0,1 21,19H7A2,2 0 0,1 5,17V3A2,2 0 0,1 7,1H21Z"/></svg>
